X:1

T:Devil in the Strawsack

M:4/4

L:1/8

Z:Andrew Kuntz

K:G Dorian

GFDF GFDF | GFDF C4 | GFDF G2d2- | dcAc dcAc

| GFDF GFDF | GFDF C4 | GFDF G2d2 | dcA(D G4) |]

d2g2 g2g2- | gagf d4 | fAgA fAgf | dcAc d4

| d2g2 g2g2- | gagf d4 | fAgA a2gf | dcA(D G4) |]

.......................            

DEVIL IN THE WHEAT PATCH. Old‑Time, Breakdown. USA, Ga. Tune played by Fiddlin' John Carson (North Ga.) in a 1914 Atlanta, Ga., fiddlers' contest.

 

DEVIL IN THE WOODPILE [1]. Old-Time, Breakdown. USA, West Virginia. D Major. Standard tuning. AABB. A story from the fiddling Hammons clan of Pocahontas County, West Virginia, tells of one member of the family, Old Pete Hammons, who made the mistake of continuing to fiddle for a Saturday night dance after midnight had struck. He returned home and put the fiddle on its peg on the wall, but later in the night heard the instrument playing “Devil in the Woodpile” by itself.  Hammons had to burn the instrument to cease the phenomenon and is said to never have touched a fiddle again (Milnes, 1999, pg. 9). Source for notated version: Melvin Wine (Braxton County, W.Va.) [Phillips, Silberberg]. Phillips (Traditional American Fiddle Tunes, vol. 1), 1994; pg. 69. Silberberg (Tunes I Learned at Tractor Tavern), 2002; pg. 35.

 

DEVIL IN THE WOODPILE [2]. Old-Time, Breakdown. C Major. Standard tuning. AB. From J.D. MacFarlane and Daughters. Source for notated version: Kerry Blech (Seattle) [Silberberg]. Silberberg (Tunes I Learned at Tractor Tavern), 2002; pg. 35.

 


DEVIL ON A/THE STUMP. Old-Time, Breakdown. USA, Kentucky. C Major. Standard tuning. ABB (Phillips/Stamper): AABB (Phillips/Jabbour). Some variations of this tune may go under the name “Devil in the Kitchen.” Sources for notated versions: Kentucky fiddler Art Stamper [Phillips]; Alan Jabbour with the Hollow Rock String Band (N.C.) [Phillips]. Phillips (Traditional American Fiddle Tunes, vol. 1), 1994; pgs. 69 & 70. County CD2712, Art Stamper - "The Lost Fiddler" (c. 1982).

 

DEVIL ON TWO STICKS, THE.  English, Jig. G Major. Standard tuning. One part. The melody is unique to London publishers Charles and Samuel Thompson’s 1757 country dance collection. The title invokes the play The Devil on Two Sticks by dramatist Samuel Foote, which premiered at the Haymarket in 1768. Thompson (Compleat Collection of 200 Favourite Country Dances, vol. 1), 1757; No. 164.

